!!!OTL@@DE: Das zerbrochene Ringlein
!!!COM: Gl&uuml;ck, Friedrich
!!!ODT: 1814
!!!OMD: M&auml;ssig langsam
!!!LYR: Eichendorff, Joseph von
!!!LDT: 1809, 1812
!!!OCL: Erk, Ludwig
!!!GCO: Deutscher Liederschatz, Band 1
**kern	**kern	**kern
*staff3	*staff2	*staff1
*Ipiano	*Ipiano	*Ivox
*clefF4	*clefG2	*clefG2
*k[b-]	*k[b-]	*k[b-]
*F:	*F:	*F:
*M6/8	*M6/8	*M6/8
*MM72	*MM72	*MM72
8r	8c/	8c/
=1	=1	=1
*^	*^	*
4A/	[4.F\	4f/	8f\L	4f/
.	.	.	8c\	.
8A/	.	8f/	8c\J	8f/
(8A/L	4F\]	(8f/L	4c\	8f/L
8G/)	.	8e/)	.	8e/J
8A/J	8F\	8f/J	8c\	8f/
=2	=2	=2	=2	=2
(8c/L	[4.C\	(4g/	4e\	(4g/
8G/)	.	.	.	.
8G/J	.	8e/)	8c\	8e/)
(8E/	4C\]	4c/	4c\	4c/
8G/)	.	.	.	.
8E/	8BB-\	8c/	8G\	8c/
=3	=3	=3	=3	=3
4F/	(8AA\L	4f/	4c\	4f/
.	8C\)	.	.	.
8A/	8F\J	8f/	8c\	8f/
(8E/L	4C\	(8g/L	4c\	8g/L
8D/)	.	8f/)	.	8f/J
8E/J	8C\	8g/J	8c\	8g/
*	*	*v	*v	*
=4	=4	=4	=4
4.F/	(8FF\L	[4.c/ [4.a/	[4.a/
.	8AA\	.	.
.	8C\J	.	.
4.F/	8F\L	8c/] 8a/]	8a/]
.	8A\	8r	8r
.	8c\J)	8f/ 8a/	8a/
=5	=5	=5	=5
(8C/L	4.C\	(8f/ 8a/L	8a/L
8G/	.	8e/) 8g/	8g/J
8c/J)	.	8e/ 8g/J	8g/
(8B-/L	4.C\	(8e/ 8g/L	8g/L
8A/	.	8f/ 8a/	8a/J
8G/J)	.	8g/) 8b-/J	8b-\
=6	=6	=6	=6
*	*	*^	*
4A/	8A\L	(4.cc/	4f\	4.cc\
.	8F\	.	.	.
[8F/	8AA\J	.	8c\	.
(8F/L]	4BB-\	4d/)	4B-\	4d/
8D/	.	.	.	.
8B-/J)	8BB-\	8g/	8d\	8g/
=7	=7	=7	=7	=7
4A/	4.C\	4f/	8c\L	4f/
.	.	.	8c\	.
8A/	.	8f/	8c\J	8f/
(8c/L	4C\	8g/L	8e\L	8g/L
8A/)	.	8f/	8f\	8f/J
(8c/J	8C\	8g/J	8e\J	8g/
=8	=8	=8	=8	=8
(8F/L)	4.F\	[4.a/	[4.f\	[4.a/
8A/	.	.	.	.
8c/J)	.	.	.	.
(8F/L	4.F\	4a/]	4f\]	8a/]
8A/	.	.	.	8r
8c/J)	.	8a/	8f\	8a/
*v	*v	*	*	*
=9	=9	=9	=9
(8D^\L	(8a/L	4Bn\ 4f\	8a^/L
8G\)	8g/	.	8g/J
8GG\J	8g/J)	8B\ 8f\	8g/
4.C\	8e/ (8g/L	4.c\	8g/L
.	8f/ 8a/	.	8a/J
.	8g/ 8b-/J)	.	8b-\
=10	=10	=10	=10
*^	*	*	*
4A/	8A\L	(4cc/	4.f\	(4cc\
.	8F\	.	.	.
[8F/	8AA\J	8ff/)	.	8ff\)
(8F/L]	4.BB-\	8dd/L	4f\	8dd\L
8D/	.	8b-/	.	8b-\J
8B-/J)	.	8g/J	8d\	8g/
=11	=11	=11	=11	=11
4A/	[4.C\	4f/	8c\L	4f/
.	.	.	8c\	.
8A/	.	8f/	8c\J	8f/
(4c/	8C\]	(4a/	4f\	4a/
.	4C\	.	.	.
8B-/)	.	8g/)	8e\	8g/
=12	=12	=12	=12	=12
(4A/	4.F\	4.f/	(8f\L	[4.f/
.	.	.	8c\	.
[8C/)	.	.	[8A\J	.
4C/]	4FF\	4f/)	4A\]	8f/]
*v	*v	*	*	*
*	*v	*v	*
.	.	8r
==	==	==
*-	*-	*-
!!!ENC: Craig Stuart Sapp
!!!END: 2004/05/26/
!!!EFL: 065/651
